lib/svgs/state-official.svg

<?xml version="1.0" encoding="UTF-8" standalone="no"?>
<svg width="20px" height="20px" viewBox="0 0 20 20" version="1.1" xmlns="http://www.w3.org/2000/svg" xmlns:xlink="http://www.w3.org/1999/xlink">
    <defs></defs>
    <g id="Icons" stroke="none" stroke-width="1" fill="none" fill-rule="evenodd">
        <g id="Web" transform="translate(-145.000000, -1134.000000)" fill="#000000">
            <g id="community/state-official" transform="translate(145.000000, 1134.000000)">
                <path d="M10,2 C5.56256,2 2,5.59376 2,10 C2,14.40624 5.56256,18 10,18 C14.40624,18 18,14.40624 18,10 C18,5.59376 14.40624,2 10,2 L10,2 L10,2 Z M11.75008,14.4688 C11.43744,14.56256 11.12496,14.62496 10.78128,14.62496 C10.37504,14.62496 10.0312,14.56256 9.75008,14.4688 C9.4688,14.34368 9.24992,14.18752 9.09376,13.9688 C8.93744,13.75008 8.81248,13.5 8.75008,13.15632 C8.65632,12.84368 8.62496,12.4688 8.62496,12.0312 L8.62496,5.9688 L9.4688,5.81248 L9.4688,7.87504 L12.09376,7.87504 L12.09376,8.59376 L9.4688,8.59376 L9.4688,12.09376 C9.4688,12.4688 9.5,12.78128 9.56256,13 C9.62496,13.24992 9.71872,13.40624 9.84368,13.5312 C9.93744,13.68752 10.09376,13.75008 10.28128,13.81248 C10.43744,13.84368 10.62496,13.87504 10.81248,13.87504 C11.18752,13.87504 11.4688,13.81248 11.65632,13.75008 L12.15632,13.5312 L12.37504,14.21872 C12.24992,14.28128 12.0312,14.37504 11.75008,14.4688 L11.75008,14.4688 L11.75008,14.4688 Z" id="Shape"></path>
            </g>
        </g>
    </g>
</svg>

<svg xmlns="http://www.w3.org/2000/svg" viewBox="0 0 20 20">
    <path fill="#000" fill-rule="evenodd" d="M10 2c-4.437 0-8 3.594-8 8a7.995 7.995 0 1 0 8-8zm1.75 12.469a3.31 3.31 0 0 1-2 0 1.536 1.536 0 0 1-.656-.5 1.936 1.936 0 0 1-.344-.813 3.99 3.99 0 0 1-.125-1.125V5.97l.844-.157v2.063h2.625v.719H9.469v3.5c0 .375.031.687.094.906.062.25.156.406.28.531.094.157.25.22.438.281a2.754 2.754 0 0 0 1.375-.062l.5-.219.219.688a5.058 5.058 0 0 1-.625.25z"/>
</svg>
